X:1
T:No. 8.  And as Moses lifted up the serpent.
T:Copyright © 2010 by CPDL This edition can be fully distributed, duplicated, performed, and recorded 
T:No. 8.  And as Moses lifted up the serpent.
T:Copyright © 2010 by CPDL This edition can be fully distributed, duplicated, performed, and recorded 
Z:Copyright © 2010 by CPDL
Z:This edition can be fully distributed, duplicated, performed, and recorded
%%score 1 { ( 2 5 ) | ( 3 4 ) }
L:1/8
Q:1/4=60
M:4/4
K:F
V:1 bass nm="Voice" snm="Voice"
V:2 treble nm="Piano" snm="Pno."
V:5 treble 
V:3 bass 
V:4 bass 
V:1
"^BASS." z4!p! F,2 G,2 | A,2"^Recit." A,6 | D>A, A,>G, F,F,G,A, | F,>E, D,2 B,2 B,2 | A,4 A,3 A, | %5
w: And as|Mos- es|lift- ed up the ser- pent in the|wil- der- ness, e- ven|so must the|
 B,2 =B,2 C3 C | ^C3 C D4 ||[K:D][M:3/4]"^Andante. ("[Q:1/4=80] z2 z2!p![Q:1/4=90] A,2 | D4 C2 | %9
w: Son of Man be|lift- ed up:|that|who- so-|
 C2 B,2 A,2 | G,2 G,2 F,2 | B,4 B,2 | E4 D2 | C2 D2 B,2 | B,2 A,2 D,2 | D4 z2 | D,4 G,2 | G,2 F,4 | %18
w: ev- er be-|liev- eth in|Him, that|who- so-|ev- er be-|liev- eth in|Him|should not|per- ish,|
 F,4 E2 | D2 C2!f! B,2 | A,2 !>!D2 !>!F,2 | (!>!A,2 !>!G,2) !>!E,2 | D,6 |] %23
w: should not|per- ish, but|have ev- er-|last- * ing|life.|
V:2
 C2 [CE]2 [DF]2 [CEG]2 | A8 | [FAd]2 z2 z4 | z4 [FB]4 | [EA]4 [D^FA]4 | B2 =B2 [Gc]4 | %6
 [EA^c]4 [DAd]4 ||[K:D][M:3/4] [DA]2 D2 [CEGA]2 | [Dd]4 c2 | c2 B2 A2 | [DG]4 [CF]2 | %11
 [DB]4 [^DB]2 | [Ee]4 [F=d]2 | c2 d2 B2 | B2 A2 F2 | [DGd]4 z2 | D4 [DG]2 | G2 F4 | F4 [Fe]2 | %19
 [Fd]2 [Ec]2 [DB]2 | [DFA]2 [FAd]2 [DF]2 | [DA]2 [B,DG]2 [A,CE]2 | [A,D]6 |] %23
V:3
 A,2 B,2 A,2 [G,B,]2 | A,2 A,2 A,4 | A,2 z2 z4 | z4 D,4 | ^C,4 D,4 | G,2 =F,2 E,2 _B,2 | %6
 A,2 G,2 ^F,4 ||[K:D][M:3/4] [F,A,]2 [G,B,]2 E,2 | A,6 | G,4 F,2 | B,4 A,2 | B,4 B,2 | B,6 | %13
 ^A,2 B,2 D2 | =C4 C2 | B,4 z2 | D,4 B,,2 | ^A,,6 | [^A,C]6 | B,2 ^A,2!f! B,2 | =A,6 | %21
 F,2 E,2 G,2 |"^Attaca." F,6 |] %23
V:4
 F,4 F,4 | F,2 G,2 F,2 E,2 | D,2 x6 | x8 | x8 | x8 | x8 ||[K:D][M:3/4] x6 | D,2 E,2 F,2 | G,4 x2 | %10
 x6 | G,4 A,2 | G,4 F,2 | E,2 D,2 D,2 | D,6- | D,4 x2 | x6 | x6 | x6 | B,2 F,2 G,2 | x6 | A,,6 | %22
 D,6 |] %23
V:5
 x8 | [CF]2 [^CE]2 [DF]2 [EG]2 | x8 | x8 | x8 | [DG]4 E4 | x8 ||[K:D][M:3/4] x6 | F2 G2 [DA]2 | %9
 D4 D2 | x6 | x6 | x6 | x6 | x6 | x6 | x6 | [^CE]6 | x6 | x6 | x6 | x6 | x6 |] %23

